icons/core/zoom-in.svg

<svg width="32" height="32" viewBox="0 0 32 32" xmlns="http://www.w3.org/2000/svg"><path fill-rule="evenodd" clip-rule="evenodd" d="M6 14C6 9.58172 9.58172 6 14 6C18.4183 6 22 9.58172 22 14C22 18.4183 18.4183 22 14 22C9.58172 22 6 18.4183 6 14ZM14 4C8.47715 4 4 8.47715 4 14C4 19.5228 8.47715 24 14 24C16.4013 24 18.6049 23.1536 20.3287 21.7429L28.2929 29.7071L29.7071 28.2929L21.7429 20.3287C23.1536 18.6049 24 16.4013 24 14C24 8.47715 19.5228 4 14 4ZM13 13V9H15V13H19V15H15V19H13V15H9V13H13Z"/></svg>

<svg viewBox="0 0 32 32" xmlns="http://www.w3.org/2000/svg"><path fill-rule="evenodd" d="M6 14a8 8 0 1116 0 8 8 0 01-16 0zm8-10C8.477 4 4 8.477 4 14s4.477 10 10 10a9.958 9.958 0 006.329-2.257l7.964 7.964 1.414-1.414-7.964-7.964A9.958 9.958 0 0024 14c0-5.523-4.477-10-10-10zm-1 9V9h2v4h4v2h-4v4h-2v-4H9v-2h4z"/></svg>
